src/assets/icons/internet-communication,fancy,link.svg

<svg width="48" height="48" viewBox="0 0 48 48" fill="none" xmlns="http://www.w3.org/2000/svg">
<path opacity="0.8" fill-rule="evenodd" clip-rule="evenodd" d="M39.4584 13.5315C37.7878 11.8609 35.0792 11.8609 33.4087 13.5315L15.6917 31.2485C15.2144 31.7258 15.2144 32.4996 15.6917 32.9769C16.169 33.4542 16.9429 33.4542 17.4202 32.9769L34.2729 16.1242C34.9889 15.4083 36.1497 15.4083 36.8656 16.1242C37.5816 16.8402 37.5816 18.001 36.8656 18.717L20.0129 35.5697C18.1037 37.4789 15.0082 37.4789 13.099 35.5697C11.1898 33.6604 11.1898 30.565 13.099 28.6557L30.8159 10.9388C33.9184 7.83628 38.9486 7.83628 42.0511 10.9388C45.1536 14.0413 45.1536 19.0714 42.0511 22.1739L24.3341 39.8909C20.0384 44.1866 13.0735 44.1866 8.77778 39.8909C4.48201 35.5951 4.48202 28.6303 8.77778 24.3345L23.902 9.21029C24.618 8.49433 25.7788 8.49433 26.4947 9.2103C27.2107 9.92626 27.2107 11.0871 26.4947 11.803L11.3705 26.9272C8.50666 29.7911 8.50666 34.4343 11.3705 37.2981C14.2344 40.162 18.8776 40.162 21.7414 37.2981L39.4584 19.5812C41.1289 17.9106 41.1289 15.2021 39.4584 13.5315Z" fill="black"/>
<path fill-rule="evenodd" clip-rule="evenodd" d="M32.113 32.1126L42.0518 22.1738C45.1543 19.0713 45.1543 14.0412 42.0518 10.9387C38.9493 7.83619 33.9191 7.83619 30.8166 10.9387L20.8778 20.8775L23.4706 23.4702L33.4093 13.5314C35.0799 11.8608 37.7885 11.8608 39.459 13.5314C41.1296 15.202 41.1296 17.9105 39.459 19.5811L29.5203 29.5199L32.113 32.1126ZM27.7918 27.7914L36.8663 18.7169C37.5823 18.0009 37.5823 16.8401 36.8663 16.1241C36.1504 15.4082 34.9895 15.4082 34.2736 16.1241L25.1991 25.1987L27.7918 27.7914ZM19.1494 19.149L26.4954 11.8029C27.2114 11.087 27.2114 9.92617 26.4954 9.21021C25.7795 8.49425 24.6186 8.49425 23.9027 9.21021L16.5566 16.5563L19.1494 19.149Z" fill="black"/>
</svg>

<svg xmlns="http://www.w3.org/2000/svg" width="48" height="48" fill="none" viewBox="0 0 48 48">
  <path fill="#000" fill-rule="evenodd" d="M39.458 13.531a4.278 4.278 0 00-6.05 0L15.693 31.248a1.222 1.222 0 101.728 1.729l16.853-16.853a1.833 1.833 0 012.593 2.593L20.013 35.57a4.889 4.889 0 01-6.914-6.914l17.717-17.717A7.944 7.944 0 0142.05 22.174L24.334 39.89c-4.296 4.296-11.26 4.296-15.556 0-4.296-4.296-4.296-11.26 0-15.556L23.902 9.21a1.833 1.833 0 112.593 2.593L11.37 26.927a7.333 7.333 0 0010.371 10.371l17.717-17.717a4.278 4.278 0 000-6.05z" clip-rule="evenodd" opacity=".8"/>
  <path fill="#000" fill-rule="evenodd" d="M32.113 32.113l9.939-9.94A7.944 7.944 0 1030.817 10.94l-9.94 9.939 2.594 2.592 9.938-9.939a4.278 4.278 0 116.05 6.05L29.52 29.52l2.593 2.593zm-4.321-4.322l9.074-9.074a1.833 1.833 0 00-2.592-2.593L25.199 25.2l2.593 2.592zm-8.643-8.642l7.346-7.346a1.833 1.833 0 10-2.592-2.593l-7.346 7.346 2.592 2.593z" clip-rule="evenodd"/>
</svg>
